X:1
T:Showman's Fancy Hornpipe
M:C
R:Hornpipe
L:1/8
%%printtempo 0
Q:170
K:D
FG|\
"D"A^GAB Adfd|"G"B2gf edcB|"D"A^GAB Adfd|"Em" (3BcA (3GAF "A"E2 FG|
"D"A^GAB Adfd|"G"B2gf edcB|"D"Adfa "A"gecA|d2 dc "D"d2:|
|:cd|"A"e^def gecA|"D"dcde fdAf|"Em"(3gag (3fgf (3efe (3ded|"A"(3cdc (3BcB A2FG|
"D"A^GAB Adfd|"G"B2gf edcB|"D"Aafd "A"Bgec|d2 dc "D"d2:|
